X: 41
T: All Praise to Jesus' Hallowed Name
M: 4/4 % time signature
L: 1/4 % default length
%%staves (S1V1 S1V2) | (S2V1 S2V2) 
V: S1V1 clef=treble 
%%MIDI beat 127 125 110 1
V: S1V2 
%%MIDI beat 127 125 110 1
V: S2V1 clef=bass 
%%MIDI beat 127 125 110 1
V: S2V2 
%%MIDI beat 127 125 110 1
K: C % key signature
%
%%MIDI program 1 0 % Piano 1
%%MIDI program 2 0 % Piano 1
%%MIDI program 3 0 % Piano 1
%%MIDI program 4 0 % Piano 1
%
% 1
[V: S1V1] [Q:1/4=120] G | G G A G | c d c2 | B d e d |
w: 1.~All praise to Je- sus' hal- lowed Name who of vir- gin 
w: 2.~Th'E- ter- nal Fa- ther's on- ly Son For a man- ger 
w: 3.~He whom the world could not in- wrap Yon- der lies in 
w: 4.~Th'E- ter- nal Light, come down from heav'n, Hath to us new 
w: 5.~The Fa- ther's Son, God ev- er\- blest, In the world be- 
[V: S1V2]  D | E E C E | E G/F/ E2 | G G G ^F |
[V: S2V1]  B, | B, C A, B, | C B, C2 | D B, C A, |
[V: S2V2]  G, | E, C, F, E, | A, G, C,2 | G, G, C, D, |
% 5
[V: S1V1]  B A !fermata!G G | c B d A | G E !fermata!D D |
w: pure be- came True man for us! The an- gels sing As 
w: leaves his throne Dis- guised in our poor flesh and blood See 
w: Ma- ry's lap; He is be- come an in- fant small, Who 
w: sun- shine giv'n; It shin- eth in the midst of night, And 
w: came a guest; He leads us from this vale of tears, And 
[V: S1V2]  D ^F !ferm!G E | G G G ^F | E ^C !ferm!D D |
[V: S2V1]  B, D/C/ !invertedfermata!B, C | C D D D | B, A, !invertedfermata!^F, F, |
[V: S2V2]  G, D, !ferm!G, C, | E, G, B,, D, | E, A,, !ferm!D, D, |
% 9
[V: S1V1]  A A A !sintro!d | c A (G/A/ B | !fermata!A) G G G | !fermata!G z2 !eintro!|]
w: the glad news to earth they bring. * * * Hal- le- lu- jah! 
w: now the ev- er- last- ing Good.  *  *  *  *  *  *  * 
w: by his might up- hold- eth all.  *  *  *  *  *  *  * 
w: mak- eth us the sons of light.  *  *  *  *  *  *  * 
w: makes us in his king- dom heirs.  *  *  *  *  *  *  * 
[V: S1V2]  ^C E D D | E D (B,/ C/ D | !ferm!D) B, D E | !ferm!E x2 |]
[V: S2V1]  E, A,/G,/ ^F, G, | G, ^F, (G,2 | !invertedfermata!^F,) G, G, G,/A,/ | !invertedfermata!B, z2 |]
[V: S2V2]  A,, ^C, D, B,, | C, D, (E, B,,/C,/ | !ferm!D,) E, B,, C, | !ferm!G, x2 |]
% 13
W: 6. He came to earth so mean and poor, Man to pity and restore,
W: And make us rich in heaven above, Equal with angels through his love.
W: 
W: 7. All this he did to show his grace To our poor and sinful race;
W: For this let Christendom adore And praise his name for evermore.


